X:1
T:Title
%%score { ( 1 3 ) | ( 2 4 ) }
L:1/8
Q:1/4=100
M:2/4
K:Bb
V:1 treble nm="Grand Piano"
V:3 treble 
V:2 bass 
V:4 bass 
V:1
 [DF][Fd] [=E_d][F=d] | [DB]2 [DF]2 | [B,D][DF] [DB][Fd] | [Ae]4 | [F,F][Ae] [_Ad][=Ae] | c2 A2 | %6
w: Adam~Geibel * * *||||||
 GF c_d | [Fd]4 | [DF][Fd] [=E_d][F=d] | [DB]2 [DF]2 | [DB][Ec] [Fd][DB] | G4 | G[Ge] [Gd][Gc] | %13
w: |||||||
 BD E=E | F2 G2 |[M:3/4] A6 |[M:4/4] z BBB BBB[DFB] | z BBB BBBB | z BBB BBB[DFB] | z AAA AAAA | %20
w: |||||||
 z AAA AAAA | z BBB BBBB | z BBB BBBB | z AAA AAGF | B4 z4 | F4 F4 | B4 z4 | G6 z2 | c4 z4 | %29
w: |||||||||
 [FBf]2 [Bd]2 B2 c2 | d4 c4 | [DB]6 z2 |] %32
w: |||
V:2
 [B,,B,][B,,B,] [B,,B,][B,,B,] | [B,,F,]2 [B,,B,]2 | [B,,F,][B,,B,] [B,,B,][B,,B,] | [F,C]4 | %4
 z [F,C] [F,=B,][F,C] | [F,A,F]2 [F,CF]2 | [F,B,E][F,A,E] [F,A,F][F,A,F] | [B,,B,]4 | %8
 [B,,B,][B,,B,] [B,,B,][B,,B,] | [B,,F,]2 [B,,B,]2 | [B,,B,][B,,B,] [B,,B,][B,,B,] | [E,B,E]4 | %12
 G,[C,C] [D,=B,][E,C] | [F,D]D, E,=E, | F,2 [F,B,=E]2 |[M:3/4] [F,CE]6 | %16
[M:4/4] z[K:treble] [DF][DF][A,DF] [G,DF][F,DF][G,DF][K:bass]D, | %17
 z[K:treble] [DF][DF][DF] [DF][DF][DF][DF] | %18
 z[K:treble] [DF][DF][A,DF] [G,DF][F,DF][G,DF][K:bass]D, | %19
 z[K:treble] [EF][EF][EF] [EF][EF][EF][EF] | z [EF][EF][=B,EF] [CEF][B,EF][CEF][F,EF] | %21
 z FFF [DF][DF][DF][DF] | z [C=E][CE][A,CE] [B,CE][A,CE][B,CE][G,CE] | %23
 z[K:treble] [EF][EF][EF] [EF][K:bass][F,CE][F,B,E][F,A,E] | %24
 B,,[F,B,][F,B,][F,B,D] [F,B,D][F,B,D][F,B,D][F,B,] | %25
 B,,[F,B,][F,B,][F,B,] [F,B,D][F,B,][F,B,][F,B,] | %26
 B,,[F,B,][F,B,][F,B,D] [F,B,D][F,B,D][F,B,D][F,B,D] | E,[G,B,]G,G, D,[F,G,][F,G,][F,G,] | %28
 C,[E,G,][E,G,][E,G,C] [E,G,C][E,G,C][E,G,C][E,G,C] | [F,B,D]2 [F,B,F]2 [^F,B,=E]2 [F,B,E]2 | %30
 [F,B,F]4 [F,A,E]4 | [B,,F,B,]6 z2 |] %32
V:3
 x4 | x4 | x4 | x4 | x4 | x4 | x4 | x4 | x4 | x4 | x4 | x4 | x4 | x4 | x4 |[M:3/4] x6 | %16
[M:4/4] B,4 z4 | F,4 z4 | B,4 z4 | F,6 z2 | D4 z4 | D4 z4 | G,4 z4 | C6 z2 | z DDA GFGD | %25
 z DDD z DDD | z DDA BcdB | z E .B,2 z =B,B,B, | z CC=B cdec | x8 | x8 | x8 |] %32
V:4
 x4 | x4 | x4 | x4 | x4 | x4 | x4 | x4 | x4 | x4 | x4 | x4 | x4 | x4 | x4 |[M:3/4] x6 | %16
[M:4/4] B,,4[K:treble] z4[K:bass] | B,,4[K:treble] F,4 | B,,4[K:treble] z4[K:bass] | %19
 F,,6[K:treble] z2 | F,4 z4 | z4 B,4 | B,,4 z4 | F,6[K:treble][K:bass] z2 | x8 | x8 | x8 | x8 | %28
 x8 | x8 | x8 | x8 |] %32

